dist/svgs/save.svg

<!-- Generated by IcoMoon.io -->
<svg version="1.1" xmlns="http://www.w3.org/2000/svg" width="24" height="24" viewBox="0 0 24 24">
<title>save</title>
<path d="M23.8 7.4l-5-7c-0.2-0.2-0.5-0.4-0.8-0.4h-17c-0.6 0-1 0.4-1 1v22c0 0.6 0.4 1 1 1h22c0.6 0 1-0.4 1-1v-15c0-0.2-0.1-0.4-0.2-0.6zM6 2h8v5h-8v-5zM18 22h-12v-8h12v8zM22 22h-2v-9c0-0.6-0.4-1-1-1h-14c-0.6 0-1 0.4-1 1v9h-2v-20h2v6c0 0.6 0.4 1 1 1h10c0.6 0 1-0.4 1-1v-6h1.5l4.5 6.3v13.7z"></path>
<path d="M9 19h6c0.6 0 1-0.4 1-1s-0.4-1-1-1h-6c-0.6 0-1 0.4-1 1s0.4 1 1 1z"></path>
</svg>

<svg xmlns="http://www.w3.org/2000/svg" width="24" height="24" viewBox="0 0 24 24"><title>save</title><path d="M23.8 7.4l-5-7c-.2-.2-.5-.4-.8-.4H1C.4 0 0 .4 0 1v22c0 .6.4 1 1 1h22c.6 0 1-.4 1-1V8c0-.2-.1-.4-.2-.6zM6 2h8v5H6V2zm12 20H6v-8h12v8zm4 0h-2v-9c0-.6-.4-1-1-1H5c-.6 0-1 .4-1 1v9H2V2h2v6c0 .6.4 1 1 1h10c.6 0 1-.4 1-1V2h1.5L22 8.3V22z"/><path d="M9 19h6c.6 0 1-.4 1-1s-.4-1-1-1H9c-.6 0-1 .4-1 1s.4 1 1 1z"/></svg>
